packages/IcoMoon/src/MugIcon/index.svg

<svg version="1.1" xmlns="http://www.w3.org/2000/svg" width="16" height="16" viewBox="0 0 16 16">
<path d="M15 5h-3v-1.5c0-1.381-2.686-2.5-6-2.5s-6 1.119-6 2.5v10c0 1.381 2.686 2.5 6 2.5s6-1.119 6-2.5v-1.5h3c0.552 0 1-0.448 1-1v-5c0-0.552-0.448-1-1-1zM2.751 4.037c-0.578-0.19-0.928-0.394-1.116-0.537 0.188-0.143 0.538-0.347 1.116-0.537 0.905-0.298 2.059-0.463 3.249-0.463s2.344 0.164 3.249 0.463c0.578 0.19 0.928 0.394 1.116 0.537-0.188 0.143-0.538 0.347-1.116 0.537-0.905 0.298-2.059 0.463-3.249 0.463s-2.344-0.164-3.249-0.463zM14 10h-2v-3h2v3z"></path>
</svg>

<svg xmlns="http://www.w3.org/2000/svg" viewBox="0 0 16 16">
  <path d="M15 5h-3V3.5C12 2.119 9.314 1 6 1S0 2.119 0 3.5v10C0 14.881 2.686 16 6 16s6-1.119 6-2.5V12h3a1 1 0 001-1V6a1 1 0 00-1-1zM2.751 4.037c-.578-.19-.928-.394-1.116-.537.188-.143.538-.347 1.116-.537C3.656 2.665 4.81 2.5 6 2.5s2.344.164 3.249.463c.578.19.928.394 1.116.537-.188.143-.538.347-1.116.537C8.344 4.335 7.19 4.5 6 4.5s-2.344-.164-3.249-.463zM14 10h-2V7h2v3z"/>
</svg>
